; generated by Slic3r 1.2.9 on 2017-04-09 at 22:36:30

; external perimeters extrusion width = 0.80mm
; perimeters extrusion width = 0.67mm
; infill extrusion width = 0.67mm
; solid infill extrusion width = 1.20mm
; top infill extrusion width = 0.67mm

M107
M190 S70 ; set bed temperature
M104 S220 ; set temperature
G28 ; home all axes
G1 Z5 F5000 ; lift nozzle

M109 S220 ; wait for temperature to be reached
G21 ; set units to millimeters
G90 ; use absolute coordinates
M82 ; use absolute distances for extrusion
G92 E0
G1 Z0.180 F7800.000
G1 E-1.00000 F2400.00000
G92 E0
G1 X40.226 Y66.677 F7800.000
G1 E1.00000 F2400.00000
G1 X41.851 Y65.814 E1.08832 F1800.000
G1 X43.000 Y65.657 E1.14399
G1 X157.000 Y65.657 E6.61568
G1 X158.797 Y66.052 E6.70400
G1 X160.263 Y67.165 E6.79233 F1800.000
G1 X161.126 Y68.790 E6.88065
G1 X161.283 Y69.940 E6.93632
G1 X161.283 Y107.940 E8.76022
G1 X160.887 Y109.737 E8.84854
G1 X159.065 Y111.692 E8.97681
G1 X118.876 Y133.812 E11.17866
G1 X116.811 Y134.343 E11.28100
G1 X82.811 Y134.343 E12.91291
G1 X80.731 Y133.804 E13.01605
G1 X40.920 Y111.683 E15.20202
G1 X39.541 Y110.465 E15.29035
G1 X38.717 Y107.940 E15.41783
G1 X38.717 Y69.940 E17.24173
G1 X39.113 Y68.142 E17.33005
G1 X40.189 Y66.725 E17.41549
G1 X40.709 Y67.167 F7800.000
G1 X40.851 Y67.000 E17.42602 F1800.000
G1 X43.000 Y66.298 E17.53451
G1 X157.000 Y66.298 E23.00620
G1 X158.648 Y66.693 E23.08756
G1 X159.940 Y67.791 E23.16891 F1800.000
G1 X160.641 Y69.940 E23.27741
G1 X160.641 Y107.940 E25.10130
G1 X160.247 Y109.588 E25.18266
G1 X158.756 Y111.130 E25.28560
G1 X118.567 Y133.250 E27.48745
G1 X116.811 Y133.702 E27.57447
G1 X82.811 Y133.702 E29.20638
G1 X81.042 Y133.243 E29.29407
G1 X41.231 Y111.123 E31.48004
G1 X39.982 Y109.977 E31.56140
G1 X39.359 Y107.940 E31.66367
G1 X39.359 Y69.940 E33.48757
G1 X39.753 Y68.291 E33.56892
G1 X40.670 Y67.213 E33.63688
G1 E32.63688 F2400.00000
G92 E0
G1 X148.207 Y104.306 F7800.000
G1 E1.00000 F2400.00000
G1 X148.340 Y104.012 E1.01837 F1800.000
G1 X148.521 Y103.745 E1.03675
G1 X148.744 Y103.512 E1.05512
G1 X149.003 Y103.321 E1.07350
G1 X149.291 Y103.175 E1.09187
G1 X149.599 Y103.081 E1.11025
G1 X149.911 Y103.041 E1.12813 F1800.000
G1 X150.241 Y103.054 E1.14693
G1 X150.557 Y103.122 E1.16536
G1 X150.856 Y103.242 E1.18374
G1 X151.131 Y103.411 E1.20211
G1 X151.373 Y103.624 E1.22048
G1 X151.575 Y103.875 E1.23886
G1 X151.728 Y104.149 E1.25674
G1 X151.840 Y104.460 E1.27555
G1 X151.894 Y104.778 E1.29398
G1 X151.894 Y105.101 E1.31235
G1 X151.840 Y105.419 E1.33073
G1 X151.733 Y105.723 E1.34910
G1 X151.575 Y106.004 E1.36747
G1 X151.373 Y106.255 E1.38585
G1 X151.131 Y106.468 E1.40422
G1 X150.856 Y106.637 E1.42260
G1 X150.557 Y106.758 E1.44097
G1 X150.241 Y106.826 E1.45935
G1 X149.919 Y106.839 E1.47772
G1 X149.599 Y106.798 E1.49609
G1 X149.299 Y106.706 E1.51398
G1 X149.004 Y106.559 E1.53278
G1 X148.744 Y106.367 E1.55121
G1 X148.521 Y106.134 E1.56958
G1 X148.340 Y105.867 E1.58796
G1 X148.207 Y105.573 E1.60633
G1 X148.126 Y105.261 E1.62471
G1 X148.099 Y104.940 E1.64308
G1 X148.126 Y104.618 E1.66146
G1 X148.192 Y104.364 E1.67641
G1 X148.005 Y104.055 F7800.000
G1 X149.862 Y81.186 F7800.000
G1 X149.316 Y81.116 E1.70286 F1800.000
G1 X148.789 Y80.954 E1.72931
G1 X148.297 Y80.706 E1.75576
G1 X147.854 Y80.379 E1.78221
G1 X147.481 Y79.989 E1.80808
G1 X147.165 Y79.528 E1.83489
G1 X146.937 Y79.022 E1.86155
G1 X146.798 Y78.489 E1.88800
G1 X146.751 Y77.940 E1.91445
G1 X146.798 Y77.391 E1.94089
G1 X146.937 Y76.857 E1.96734
G1 X147.164 Y76.355 E1.99379
G1 X147.472 Y75.899 E2.02024
G1 X147.854 Y75.501 E2.04669
G1 X148.297 Y75.173 E2.07314
G1 X148.789 Y74.925 E2.09959
G1 X149.316 Y74.764 E2.12604
G1 X149.850 Y74.695 E2.15191 F1800.000
G1 X150.408 Y74.716 E2.17872
G1 X150.951 Y74.833 E2.20538
G1 X151.463 Y75.039 E2.23183
G1 X151.932 Y75.328 E2.25828
G1 X152.346 Y75.692 E2.28472
G1 X152.692 Y76.120 E2.31117
G1 X152.955 Y76.591 E2.33705
G1 X153.143 Y77.117 E2.36386
G1 X153.237 Y77.664 E2.39052
G1 X153.237 Y78.215 E2.41697
G1 X153.144 Y78.758 E2.44342
G1 X152.960 Y79.278 E2.46986
G1 X152.692 Y79.759 E2.49631
G1 X152.346 Y80.188 E2.52276
G1 X151.932 Y80.552 E2.54921
G1 X151.463 Y80.841 E2.57566
G1 X150.951 Y81.046 E2.60211
G1 X150.413 Y81.162 E2.62856
G1 X149.922 Y81.183 E2.65213
G1 X149.895 Y80.542 F7800.000
G1 X149.451 Y80.486 E2.67359 F1800.000
G1 X149.029 Y80.357 E2.69480
G1 X148.634 Y80.158 E2.71601
G1 X148.279 Y79.895 E2.73722
G1 X147.980 Y79.584 E2.75793
G1 X147.727 Y79.213 E2.77950
G1 X147.544 Y78.808 E2.80084
G1 X147.432 Y78.380 E2.82205
G1 X147.395 Y77.940 E2.84326
G1 X147.432 Y77.499 E2.86447
G1 X147.544 Y77.072 E2.88567
G1 X147.726 Y76.669 E2.90688
G1 X147.973 Y76.303 E2.92809
G1 X148.279 Y75.984 E2.94930
G1 X148.634 Y75.721 E2.97051
G1 X149.029 Y75.522 E2.99172
G1 X149.451 Y75.393 E3.01293
G1 X149.879 Y75.338 E3.03364 F1800.000
G1 X150.328 Y75.355 E3.05521
G1 X150.763 Y75.449 E3.07655
G1 X151.173 Y75.613 E3.09776
G1 X151.549 Y75.845 E3.11897
G1 X151.881 Y76.137 E3.14017
G1 X152.158 Y76.481 E3.16138
G1 X152.369 Y76.858 E3.18210
G1 X152.521 Y77.281 E3.20367
G1 X152.596 Y77.719 E3.22500
G1 X152.596 Y78.161 E3.24621
G1 X152.521 Y78.596 E3.26742
G1 X152.374 Y79.013 E3.28863
G1 X152.158 Y79.399 E3.30984
G1 X151.881 Y79.742 E3.33105
G1 X151.549 Y80.034 E3.35226
G1 X151.173 Y80.266 E3.37346
G1 X150.763 Y80.431 E3.39467
G1 X150.331 Y80.524 E3.41588
G1 X149.955 Y80.540 E3.43395
G1 X149.925 Y79.839 F7800.000
G1 X149.599 Y79.798 E3.45265 F1800.000
G1 X149.291 Y79.704 E3.47102
G1 X149.003 Y79.559 E3.48940
G1 X148.744 Y79.367 E3.50777
G1 X148.527 Y79.140 E3.52566
G1 X148.341 Y78.868 E3.54446
G1 X148.207 Y78.573 E3.56289
G1 X148.126 Y78.261 E3.58126
G1 X148.099 Y77.940 E3.59964
G1 X148.126 Y77.618 E3.61801
G1 X148.207 Y77.306 E3.63639
G1 X148.340 Y77.012 E3.65476
G1 X148.521 Y76.745 E3.67314
G1 X148.744 Y76.512 E3.69151
G1 X149.003 Y76.321 E3.70988
G1 X149.291 Y76.175 E3.72826
G1 X149.599 Y76.081 E3.74663
G1 X149.911 Y76.041 E3.76452 F1800.000
G1 X150.241 Y76.054 E3.78332
G1 X150.557 Y76.122 E3.80175
G1 X150.856 Y76.242 E3.82012
G1 X151.131 Y76.411 E3.83850
G1 X151.373 Y76.624 E3.85687
G1 X151.575 Y76.875 E3.87524
G1 X151.728 Y77.149 E3.89313
G1 X151.840 Y77.460 E3.91193
G1 X151.894 Y77.778 E3.93036
G1 X151.894 Y78.101 E3.94874
G1 X151.840 Y78.419 E3.96711
G1 X151.733 Y78.723 E3.98549
G1 X151.575 Y79.004 E4.00386
G1 X151.373 Y79.255 E4.02223
G1 X151.131 Y79.468 E4.04061
G1 X150.856 Y79.637 E4.05898
G1 X150.557 Y79.758 E4.07736
G1 X150.241 Y79.826 E4.09573
G1 X149.985 Y79.836 E4.11036
G1 X149.742 Y80.111 F7800.000
G1 X52.237 Y78.215 F7800.000
G1 X52.144 Y78.758 E4.13681 F1800.000
G1 X51.960 Y79.278 E4.16325
G1 X51.698 Y79.749 E4.18913
G1 X51.349 Y80.185 E4.21594
G1 X50.932 Y80.552 E4.24260
G1 X50.463 Y80.841 E4.26905
G1 X49.951 Y81.046 E4.29550
G1 X49.413 Y81.162 E4.32195
G1 X48.862 Y81.186 E4.34839
G1 X48.316 Y81.116 E4.37484
G1 X47.800 Y80.958 E4.40072
G1 X47.300 Y80.709 E4.42753
G1 X46.854 Y80.379 E4.45418
G1 X46.472 Y79.981 E4.48063
G1 X46.164 Y79.524 E4.50708
G1 X45.937 Y79.022 E4.53353
G1 X45.798 Y78.489 E4.55998
G1 X45.751 Y77.940 E4.58643
G1 X45.798 Y77.391 E4.61288
G1 X45.937 Y76.857 E4.63933
G1 X46.164 Y76.355 E4.66578
G1 X46.472 Y75.899 E4.69223
G1 X46.854 Y75.501 E4.71867
G1 X47.297 Y75.173 E4.74512
G1 X47.789 Y74.925 E4.77157
G1 X48.316 Y74.764 E4.79802
G1 X48.850 Y74.695 E4.82390 F1800.000
G1 X49.408 Y74.716 E4.85071
G1 X49.951 Y74.833 E4.87736
G1 X50.463 Y75.039 E4.90381
G1 X50.932 Y75.328 E4.93026
G1 X51.346 Y75.692 E4.95671
G1 X51.692 Y76.120 E4.98316
G1 X51.955 Y76.591 E5.00903
G1 X52.143 Y77.117 E5.03584
G1 X52.237 Y77.664 E5.06250
G1 X52.237 Y78.155 E5.08607
G1 X51.596 Y78.155 F7800.000
G1 X51.521 Y78.596 E5.10754 F1800.000
G1 X51.374 Y79.013 E5.12874
G1 X51.163 Y79.389 E5.14945
G1 X50.883 Y79.741 E5.17103
G1 X50.549 Y80.034 E5.19236
G1 X50.173 Y80.266 E5.21357
G1 X49.763 Y80.431 E5.23478
G1 X49.331 Y80.524 E5.25599
G1 X48.889 Y80.543 E5.27720
G1 X48.451 Y80.486 E5.29841
G1 X48.039 Y80.360 E5.31912
G1 X47.636 Y80.160 E5.34069
G1 X47.279 Y79.895 E5.36203
G1 X46.973 Y79.576 E5.38324
G1 X46.726 Y79.210 E5.40445
G1 X46.544 Y78.808 E5.42566
G1 X46.432 Y78.380 E5.44686
G1 X46.395 Y77.940 E5.46807
G1 X46.432 Y77.499 E5.48928
G1 X46.544 Y77.072 E5.51049
G1 X46.726 Y76.669 E5.53170
G1 X46.973 Y76.303 E5.55291
G1 X47.279 Y75.984 E5.57412
G1 X47.634 Y75.721 E5.59533
G1 X48.029 Y75.522 E5.61653
G1 X48.451 Y75.393 E5.63774
G1 X48.879 Y75.338 E5.65845 F1800.000
G1 X49.328 Y75.355 E5.68002
G1 X49.763 Y75.449 E5.70136
G1 X50.173 Y75.613 E5.72257
G1 X50.549 Y75.845 E5.74378
G1 X50.881 Y76.137 E5.76499
G1 X51.158 Y76.481 E5.78620
G1 X51.369 Y76.858 E5.80691
G1 X51.521 Y77.281 E5.82848
G1 X51.596 Y77.719 E5.84982
G1 X51.596 Y78.095 E5.86789
G1 X50.894 Y78.095 F7800.000
G1 X50.840 Y78.419 E5.88658 F1800.000
G1 X50.733 Y78.723 E5.90496
G1 X50.579 Y78.997 E5.92284
G1 X50.373 Y79.255 E5.94165
G1 X50.131 Y79.468 E5.96007
G1 X49.856 Y79.637 E5.97845
G1 X49.557 Y79.758 E5.99682
G1 X49.241 Y79.826 E6.01520
G1 X48.919 Y79.839 E6.03357
G1 X48.599 Y79.798 E6.05195
G1 X48.299 Y79.706 E6.06983
G1 X48.004 Y79.559 E6.08863
G1 X47.744 Y79.367 E6.10706
G1 X47.521 Y79.134 E6.12544
G1 X47.340 Y78.867 E6.14381
G1 X47.207 Y78.573 E6.16219
G1 X47.126 Y78.261 E6.18056
G1 X47.099 Y77.940 E6.19893
G1 X47.126 Y77.618 E6.21731
G1 X47.207 Y77.306 E6.23568
G1 X47.340 Y77.012 E6.25406
G1 X47.521 Y76.745 E6.27243
G1 X47.744 Y76.512 E6.29081
G1 X48.003 Y76.321 E6.30918
G1 X48.291 Y76.175 E6.32755
G1 X48.599 Y76.081 E6.34593
G1 X48.911 Y76.041 E6.36381 F1800.000
G1 X49.241 Y76.054 E6.38261
G1 X49.557 Y76.122 E6.40105
G1 X49.856 Y76.242 E6.41942
G1 X50.131 Y76.411 E6.43779
G1 X50.373 Y76.624 E6.45617
G1 X50.575 Y76.875 E6.47454
G1 X50.728 Y77.149 E6.49243
G1 X50.840 Y77.460 E6.51123
G1 X50.894 Y77.778 E6.52966
G1 X50.894 Y78.035 E6.54429
G1 X51.159 Y78.290 F7800.000
G1 X132.159 Y106.197 F7800.000
G1 X51.989 Y106.197 E10.39223 F1800.000
G1 X52.144 Y105.758 E10.41456
G1 X52.237 Y105.215 E10.44101
G1 X52.237 Y104.664 E10.46746
G1 X52.143 Y104.117 E10.49412
G1 X51.955 Y103.591 E10.52093
G1 X51.692 Y103.120 E10.54680
G1 X51.346 Y102.692 E10.57325
G1 X50.932 Y102.328 E10.59970
G1 X50.463 Y102.039 E10.62615
G1 X49.951 Y101.833 E10.65260
G1 X49.408 Y101.716 E10.67925
G1 X48.850 Y101.695 E10.70606
G1 X48.316 Y101.764 E10.73194
G1 X47.789 Y101.925 E10.75839
G1 X47.297 Y102.173 E10.78484
G1 X46.854 Y102.501 E10.81129
G1 X46.472 Y102.899 E10.83774
G1 X46.161 Y103.359 E10.86439
G1 X45.934 Y103.869 E10.89120
G1 X45.798 Y104.391 E10.91708
G1 X45.751 Y104.940 E10.94353
G1 X45.798 Y105.489 E10.96997
G1 X45.982 Y106.197 E11.00511
G1 X44.743 Y106.197 E11.06461
G1 X44.743 Y71.682 E12.72123
G1 X155.257 Y71.682 E18.02563
G1 X155.257 Y106.197 E19.68225
G1 X152.989 Y106.197 E19.79113 F1800.000
G1 X153.144 Y105.758 E19.81346
G1 X153.237 Y105.215 E19.83991
G1 X153.237 Y104.664 E19.86636
G1 X153.143 Y104.117 E19.89301
G1 X152.955 Y103.591 E19.91983
G1 X152.692 Y103.120 E19.94570
G1 X152.346 Y102.692 E19.97215
G1 X151.932 Y102.328 E19.99860
G1 X151.463 Y102.039 E20.02505
G1 X150.951 Y101.833 E20.05150
G1 X150.408 Y101.716 E20.07815
G1 X149.850 Y101.695 E20.10496
G1 X149.316 Y101.764 E20.13084
G1 X148.789 Y101.925 E20.15729
G1 X148.297 Y102.173 E20.18374
G1 X147.854 Y102.501 E20.21019
G1 X147.472 Y102.899 E20.23663
G1 X147.164 Y103.355 E20.26308
G1 X146.937 Y103.857 E20.28953
G1 X146.798 Y104.391 E20.31598
G1 X146.751 Y104.940 E20.34243
G1 X146.798 Y105.489 E20.36888
G1 X146.982 Y106.197 E20.40401
G1 X132.219 Y106.197 E21.11261
G1 X132.219 Y106.838 F7800.000
G1 X50.805 Y106.838 E25.02028 F1800.000
G1 X51.163 Y106.389 E25.04787
G1 X51.374 Y106.013 E25.06858
G1 X51.521 Y105.596 E25.08978
G1 X51.596 Y105.161 E25.11100
G1 X51.596 Y104.719 E25.13220
G1 X51.521 Y104.281 E25.15354
G1 X51.369 Y103.858 E25.17511
G1 X51.158 Y103.481 E25.19583
G1 X50.881 Y103.137 E25.21703
G1 X50.549 Y102.845 E25.23824
G1 X50.173 Y102.613 E25.25945
G1 X49.763 Y102.449 E25.28066
G1 X49.328 Y102.355 E25.30200
G1 X48.879 Y102.338 E25.32357
G1 X48.451 Y102.393 E25.34428
G1 X48.029 Y102.522 E25.36549
G1 X47.634 Y102.721 E25.38670
G1 X47.279 Y102.984 E25.40791
G1 X46.973 Y103.303 E25.42912
G1 X46.724 Y103.671 E25.45045
G1 X46.541 Y104.082 E25.47202
G1 X46.432 Y104.499 E25.49274
G1 X46.395 Y104.940 E25.51395
G1 X46.432 Y105.380 E25.53515
G1 X46.544 Y105.808 E25.55636
G1 X46.726 Y106.210 E25.57757
G1 X47.150 Y106.838 E25.61397
G1 X44.101 Y106.838 E25.76031
G1 X44.101 Y71.041 E27.47850
G1 X155.899 Y71.041 E32.84447
G1 X155.899 Y106.838 E34.56266
G1 X151.803 Y106.838 E34.75923 F1800.000
G1 X152.158 Y106.399 E34.78637
G1 X152.374 Y106.013 E34.80758
G1 X152.521 Y105.596 E34.82879
G1 X152.596 Y105.161 E34.85000
G1 X152.596 Y104.719 E34.87121
G1 X152.521 Y104.281 E34.89255
G1 X152.369 Y103.858 E34.91412
G1 X152.158 Y103.481 E34.93483
G1 X151.881 Y103.137 E34.95604
G1 X151.549 Y102.845 E34.97725
G1 X151.173 Y102.613 E34.99845
G1 X150.763 Y102.449 E35.01966
G1 X150.328 Y102.355 E35.04100
G1 X149.879 Y102.338 E35.06257
G1 X149.451 Y102.393 E35.08329
G1 X149.029 Y102.522 E35.10449
G1 X148.634 Y102.721 E35.12570
G1 X148.279 Y102.984 E35.14691
G1 X147.973 Y103.303 E35.16812
G1 X147.726 Y103.669 E35.18933
G1 X147.544 Y104.072 E35.21054
G1 X147.432 Y104.499 E35.23175
G1 X147.395 Y104.940 E35.25296
G1 X147.432 Y105.380 E35.27416
G1 X147.544 Y105.808 E35.29537
G1 X147.726 Y106.210 E35.31658
G1 X148.150 Y106.838 E35.35298
G1 X132.279 Y106.838 E36.11475
G1 X50.894 Y105.101 F7800.000
G1 X50.840 Y105.419 E36.13313 F1800.000
G1 X50.733 Y105.723 E36.15150
G1 X50.579 Y105.997 E36.16939
G1 X50.373 Y106.255 E36.18819
G1 X50.131 Y106.468 E36.20662
G1 X49.856 Y106.637 E36.22499
G1 X49.557 Y106.758 E36.24337
G1 X49.241 Y106.826 E36.26174
G1 X48.919 Y106.839 E36.28012
G1 X48.599 Y106.798 E36.29849
G1 X48.299 Y106.706 E36.31637
G1 X48.004 Y106.559 E36.33518
G1 X47.744 Y106.367 E36.35361
G1 X47.521 Y106.134 E36.37198
G1 X47.340 Y105.867 E36.39036
G1 X47.207 Y105.573 E36.40873
G1 X47.126 Y105.261 E36.42710
G1 X47.099 Y104.940 E36.44548
G1 X47.126 Y104.618 E36.46385
G1 X47.205 Y104.315 E36.48174
G1 X47.340 Y104.013 E36.50054
G1 X47.521 Y103.745 E36.51897
G1 X47.744 Y103.512 E36.53734
G1 X48.003 Y103.321 E36.55572
G1 X48.291 Y103.175 E36.57409
G1 X48.599 Y103.081 E36.59247
G1 X48.911 Y103.041 E36.61035 F1800.000
G1 X49.241 Y103.054 E36.62915
G1 X49.557 Y103.122 E36.64758
G1 X49.856 Y103.242 E36.66596
G1 X50.131 Y103.411 E36.68433
G1 X50.373 Y103.624 E36.70271
G1 X50.575 Y103.875 E36.72108
G1 X50.728 Y104.149 E36.73896
G1 X50.840 Y104.460 E36.75777
G1 X50.894 Y104.778 E36.77620
G1 X50.894 Y105.041 E36.79115
G1 X51.154 Y105.293 F7800.000
G1 X50.894 Y107.540 F7800.000
G1 X43.400 Y107.540 E37.21818 F1800.000
G1 X43.400 Y70.340 E39.33776
G1 X156.600 Y70.340 E45.78762
G1 X156.600 Y107.540 E47.90720
G1 X50.954 Y107.540 E53.92663 F1800.000
G1 X50.694 Y107.193 F7800.000
G1 X45.311 Y105.876 F7800.000
G1 X45.272 Y105.561 E53.94189 F1800.000
G1 X45.247 Y104.955 E53.97098
G1 X45.259 Y104.641 E53.98608
G1 X45.259 Y104.641 F7800.000
G1 X45.275 Y104.283 E54.02153 F1800.000
G1 X45.351 Y103.690 E54.08065
G1 X45.447 Y103.232 E54.12689
G1 X45.447 Y79.647 F7800.000
G1 X45.353 Y79.202 E54.17186 F1800.000
G1 X45.275 Y78.597 E54.23224
G1 X45.259 Y78.238 E54.26770
G1 X45.259 Y77.641 F7800.000
G1 X45.275 Y77.283 E54.30316 F1800.000
G1 X45.353 Y76.677 E54.36354
G1 X45.447 Y76.232 E54.40851
G1 X46.486 Y75.309 F7800.000
G1 X45.242 Y74.066 E54.56253 F1800.000
G1 X45.242 Y72.411 E54.70742
G1 X47.458 Y74.627 E54.98181
G1 X48.723 Y74.237 E55.09772
G1 X46.668 Y72.182 E55.35221
G1 X48.323 Y72.182 E55.49710
G1 X50.563 Y74.422 E55.77451
G1 E54.77451 F2400.00000
G92 E0
G1 X47.771 Y81.558 F7800.000
G1 E1.00000 F2400.00000
G1 X71.910 Y105.697 E3.98916 F1800.000
G1 X73.565 Y105.697 E4.13405
G1 X49.479 Y81.612 E7.11659
G1 X50.697 Y81.175 E7.22987
G1 X75.219 Y105.697 E10.26654
G1 X76.874 Y105.697 E10.41143
G1 X51.638 Y80.461 E13.53646
G1 X52.316 Y79.484 E13.64057
G1 X78.529 Y105.697 E16.88656
G1 X80.184 Y105.697 E17.03145
G1 X52.705 Y78.219 E20.43416
G1 X52.510 Y76.369 E20.59706
